X:1
T:Title
%%score [ 1 2 3 4 ]
L:1/8
Q:1/4=112
M:4/4
K:C
V:1 treble nm="MusicXML Part"
V:2 treble nm="MusicXML Part"
V:3 treble-8 nm="MusicXML Part"
V:4 bass nm="MusicXML Part"
V:1
 G8- | G8 | A4 A4- | A2 B2 c4- | c2 c2 B4- | B8 | z4 G4 | A2 c4 B2 | A3 A G4 | z8 | z2 B2 c2 e2- | %11
w: O||sa- crum|* con- vi-|* vi- um!||in|quo Chri- stus|su- mi- tur,||in quo Chri-|
 e2 d2 c3 c | B4 z4 | z2 A2 G2 F2 | E3 F G2 A2 | D2 G4 G2 | F4 E4 | CDEF GF/E/ DE | (F2 ED E2) C2 | %19
w: * stus su- mi-|tur:|re- co- li-|tur me- mo- ri-|a pas- si-|o- nis|e- * * * * * * * *|ius, * * * re-|
 D2 E2 (FGAF | G4) z4 | G4 A2 B2 | c3 B A2 c2 | B4 z2 A2- | A2 A2 G4 | F4 E3 F | GA B4 A2- | %27
w: co- li- tur, * * *||re- co- li-|tur me- mo- ri-|a pas-|* si- o-|nis e- *||
 A2 ^G2 (A=GFE | D4) z2 E2- | E2 ^F2 G4- | G4 E4 | A3 A G4 | G4 A4 | B4 G4 | c3 c B4 | z8 | %36
w: * * ius: * * *|* mens|* im- ple-|* tur|gra- ti- a,|mens im-|ple- tur|gra- ti- a:||
 z2 G4 G2 | A2 F2 (G3 F | E2) E2 D4 | G4 A4 | B4 c4 | A4 G4 | z8 | z2 c4 c2 | d2 B2 (c3 B | %45
w: et fu-|tu- rae glo- *|* ri- ae|no- bis|pi- gnus|da- tur,||et fu-|tu- rae glo- *|
 A2) A2 G4 | z2 E4 C2 | D4 E2 G2- | G2 ^FE F4 | G4 z4 | G4 F2 E2 | D4 z4 | z2 d2 c2 B2 | A4 z4 | %54
w: * ri- ae|no- bis|pi- gnus da-||tur,|Al- le- lu-|ia,|Al- le- lu-|ia,|
 z2 A2 G2 F2 | E4 z4 | z2 e2 d2 c2 | B4 z4 | z2 d2 c2 B2 | A4 z2 B2 | A2 G2 G4- | G2 E2 A4 | G8 | %63
w: Al- le- lu-|ia,|Al- le- lu-|ia,|Al- le- lu-|ia, Al-|le- lu- ia,|* Al- le-|lu-|
 G8 |] %64
w: ia.|
V:2
 (E8 | D8) | F4 F4 | F4 G4- | G2 G2 G4 | z2 D4 E2 | F2 E4 G2- | GF FE/D/ E2 D2 | C4 C4 | D2 F4 E2 | %10
w: O||sa- crum|con- vi-|* vi- um!|in quo|Chri- stus su-|* * * * * * mi-|tur, in|quo Chri- stus|
 D3 D C4 | z2 D2 E2 F2 | G3 F E2 D2 | C4 z4 | z2 C2 B,2 A,2 | G,3 A, B,2 C2 | D4 z2 E2- | %17
w: su- mi- tur:|re- co- li-|tur me- mo- ri-|a|re- co- li-|tur me- mo- ri-|a pas-|
 E2 E2 D4 | C8 | B,4 A,2 A,2 | B,2 C2 D4 | z2 E2 F2 G2 | A3 G F2 E2 | G4 C4 | A,4 B,2 C2 | %25
w: * si- o-|nis|e- ius, re-|co- li- tur,|re- co- li-|tur me- mo- ri-|a pas-|si- o- nis|
 D3 C/B,/ CDEC | D3 B, E4 | E4 z4 | B,8 | C4 D4 | B,4 G,3 G, | D3 C B,4 | z2 E4 D2 | G4 E2 G2- | %34
w: e- * * * * * *||ius:|mens|im- ple-|tur gra- ti-|a, * *|mens im-|ple- tur gra-|
 G2 ^F2 G3 =F/E/ | D4 z2 D2- | D2 D2 E2 B,2 | D2 D2 E3 F | G4 z2 D2 | E4 ^F4 | G4 E4 | D4 z2 C2- | %42
w: * ti- a: * *|* et|* fu- tu- rae|glo- ri- ae *|* no-|bis pi-|gnus da-|tur, et|
 C2 C2 D2 F2 | E3 D C2 C2 | B,2 D2 E4 | FEDC B,2 B,2 | E3 D CDEF | GD G3 F ED | C8 | D4 z4 | %50
w: * fu- tu- rae|glo- * * ri-|ae no- bis|pi- * * * * gnus|da- * * * * *|||tur,|
 z2 G,2 A,B, C2- | C2 B,2 C4 | z2 D2 EF G2- | G2 ^F2 G4 | z2 A,2 B,C D2- | D2 ^C2 D4 | %56
w: Al- le- * *|* lu- ia,|Al- le- * *|* lu- ia,|Al- le- * *|* lu- ia,|
 z2 E2 FG A2- | A2 G2 C4 | z2 D2 EF G2- | G2 ^F2 G2 G,2 | A,B, C4 B,2 | C2 G2 (F2 E2) | D8 | E8 |] %64
w: Al- le- * *|* lu- ia,|Al- le- * *|* lu- ia, Al-|le- * * lu-|ia, Al- le- *|lu-|ia.|
V:3
 z4 c4- | c2 BA B4 | c4 c4 | d4 e4- | e2 e2 d4- | d4 G4 | A4 c2 B2 | A3 A G4 | z4 z2 G2 | A4 c4- | %10
w: O||sa- crum|con- vi-|* vi- um!|* in|quo Chri- stus|su- mi- tur,|in|quo Chri-|
 c2 B2 A3 A | G4 z4 | z2 d2 c2 B2 | A3 B c2 d2 | G4 z4 | z4 z2 G2 | A2 B2 c3 B | A2 G2 G4 | %18
w: * stus su- mi-|tur:|re- co- li-|tur me- mo- ri-|a|re-|co- li- tur me-|mo- ri- a|
 z2 A4 A2 | G4 F4 | E4 D4 | z8 | z4 c4 | d2 e2 f3 e | d2 c2 e4 | z2 A4 A2 | G4 c4 | B4 A4 | z8 | %29
w: pas- si-|o- nis|e- ius,||re-|co- li- tur me-|mo- ri- a|pas- si-|o- nis|e- ius:||
 z8 | E8 | F4 G4 | E4 A3 A | GABG cB BA/G/ | A4 G4 | B2 B2 c2 A2 | B3 A G2 G2 | FGAF c4- | c4 z4 | %39
w: |mens|im- ple-|tur gra- ti-|a: * * * * * * * *||et fu- tu- rae|glo- * * ri-|ae * * * *||
 z2 c4 c2 | d2 B2 AG G2- | G2 ^F2 G2 G2 | A4 B4 | c4 A4 | G2 G2 G2 A2- | A2 F2 G2 G2 | E2 G2 A4 | %47
w: et fu-|tu- rae glo- * *|* ri- ae no-|bis pi-|gnus da-|tur, et fu- tu-|* rae glo- ri-|ae no- bis|
 B4 c4 | A8 | G2 B2 AB c2- | c2 B2 c4 | z2 G2 AB c2- | c2 B2 c4 | z2 d2 c2 B2 | d4 z4 | A4 Bc d2- | %56
w: pi- gnus|da-|tur, Al- le- * *|* lu- ia,|Al- le- * *|* lu- ia,|Al- le- lu-|ia,|Al- le- * *|
 d2 ^c2 d4 | z2 e2 AB c2- | c2 B2 c4 | z2 d2 BcdB | c2 e2 d4 | z2 c2 AB c2- | c2 BA B4 | c8 |] %64
w: * lu- ia,|Al- le- * *|* lu- ia,|Al- le- * * *|* lu- ia,|Al- le- * *|* * * lu-|ia.|
V:4
 (C,8 | G,8) | F,4 F,4 | D,4 C,4- | C,2 C,2 G,,4- | G,,4 z4 | z8 | z4 z2 G,2 | A,2 F,4 E,2 | %9
w: O||sa- crum|con- vi-|* vi- um!|||in|quo Chri- stus|
 D,3 D, C,4 | G,4 A,2 C2- | C2 B,2 A,3 A, | G,4 z4 | z2 F,2 E,2 D,2 | C,3 D, E,2 F,2 | %15
w: su- mi- tur,|in quo Chri-|* stus su- mi-|tur:|re- co- li-|tur me- mo- ri-|
 G,2 E,4 E,2 | D,4 C,4- | C,4 B,,4 | A,,4 z2 A,,2 | B,,2 C,2 D,4 | z2 G,2 A,2 B,2 | C3 B, A,2 G,2 | %22
w: a pas- si-|o- nis|* e-|ius, re-|co- li- tur,|re- co- li-|tur me- mo- ri-|
 F,2 A,4 A,2 | G,4 F,4- | F,4 E,4 | D,4 z4 | z4 E,4- | E,4 F,4 | G,4 E,4 | A,3 A, G,4- | G,4 C,4 | %31
w: a pas- si-|o- nis|* e-|ius:|mens|* im-|ple- tur|gra- ti- a,|* mens|
 D,4 E,4 | C,4 F,3 F, | E,8 | z4 z2 G,2- | G,2 G,2 A,2 F,2 | G,3 F, E,2 E,2 | D,4 z2 C,2- | %38
w: im- ple-|tur gra- ti-|a:|et|* fu- tu- rae|glo- * * ri-|ae et|
 C,2 C,2 D,2 B,,2 | C,3 B,, A,,2 A,,2 | G,,4 C,4 | D,4 E,4 | F,4 D,4 | C,4 z4 | z4 C,4 | D,4 E,4 | %46
w: * fu- tu- rae|glo- * * ri-|ae no-|bis pi-|gnus da-|tur,|no-|bis pi-|
 C,4 A,,4 | G,,4 z4 | z8 | z2 G,2 F,2 E,2 | G,4 z4 | G,4 F,2 E,2 | D,4 z4 | z2 D,2 E,F, G,2- | %54
w: gnus da-|tur,||Al- le- lu-|ia,|Al- le- lu-|ia,|Al- le- * *|
 G,2 ^F,2 G,4 | z2 A,2 G,2 =F,2 | E,4 z4 | z2 E,2 F,2 E,2 | D,4 z4 | z4 G,4 | F,2 E,2 G,4 | %61
w: * lu- ia,|Al- le- lu-|ia,|Al- le- lu-|ia,|Al-|le- lu- ia,|
 C,4 F,4 | G,8 | C,8 |] %64
w: Al- le-|lu-|ia.|

